src/static/logos/google-analytics.svg

<?xml version="1.0" encoding="UTF-8"?>
<svg width="256px" height="256px" viewBox="0 0 256 256" version="1.1" xmlns="http://www.w3.org/2000/svg" xmlns:xlink="http://www.w3.org/1999/xlink" preserveAspectRatio="xMidYMid">
    <defs>
        <linearGradient x1="0%" y1="50%" x2="99.9342538%" y2="50%" id="linearGradient-1">
            <stop stop-color="#FFFFFF" stop-opacity="0.1" offset="0%"></stop>
            <stop stop-color="#FFFFFF" stop-opacity="0" offset="100%"></stop>
        </linearGradient>
        <path d="M234.831034,0 L188.637519,0 C177.383099,0 168.144396,9.23870306 168.144396,20.4931232 L168.144396,80.6286813 L100.953828,80.6286813 C89.8673843,80.6286813 80.7966577,89.6994079 80.7966577,100.785852 L80.7966577,167.976419 L20.1571703,167.976419 C9.07072664,167.976419 0,177.047146 0,188.13359 L0,235.166987 C0,246.253431 9.07072664,255.324157 20.1571703,255.324157 L234.831034,255.324157 C246.085454,255.324157 255.324157,246.085454 255.324157,234.831034 L255.324157,20.4931232 C255.324157,9.23870306 246.085454,0 234.831034,0 Z" id="path-2"></path>
        <path d="M80.6286813,20.1571703 L80.6286813,87.347738 L20.1571703,87.347738 C9.07072664,87.347738 0,96.4184647 0,107.504908 L0,154.538306 C0,165.624749 9.07072664,174.695476 20.1571703,174.695476 L167.976419,174.695476 L167.976419,0 L100.785852,0 C89.6994079,0 80.6286813,9.07072664 80.6286813,20.1571703 Z" id="path-4"></path>
        <filter x="-11.3%" y="-9.7%" width="122.6%" height="121.8%" filterUnits="objectBoundingBox" id="filter-5">
            <feOffset dx="0" dy="2" in="SourceAlpha" result="shadowOffsetOuter1"></feOffset>
            <feGaussianBlur stdDeviation="6" in="shadowOffsetOuter1" result="shadowBlurOuter1"></feGaussianBlur>
            <feColorMatrix values="0 0 0 0 0   0 0 0 0 0   0 0 0 0 0  0 0 0 0.2 0" type="matrix" in="shadowBlurOuter1"></feColorMatrix>
        </filter>
        <linearGradient x1="-49.6146435%" y1="25.2403846%" x2="93.1793834%" y2="96.5000962%" id="linearGradient-6">
            <stop stop-color="#BF360C" stop-opacity="0.2" offset="0%"></stop>
            <stop stop-color="#BF360C" stop-opacity="0.02" offset="100%"></stop>
        </linearGradient>
        <linearGradient x1="33.5296711%" y1="33.5755921%" x2="98.2178289%" y2="98.26375%" id="linearGradient-7">
            <stop stop-color="#FFFFFF" stop-opacity="0.1" offset="0%"></stop>
            <stop stop-color="#FFFFFF" stop-opacity="0" offset="100%"></stop>
        </linearGradient>
    </defs>
		<g>
				<path d="M234.831034,0 L188.301566,0 C177.047146,0 167.808443,9.23870306 167.808443,20.4931232 L167.808443,80.6286813 L100.449899,80.6286813 C89.5314315,80.6286813 80.6286813,89.5314315 80.6286813,100.617875 L80.6286813,167.976419 L19.9891939,167.976419 C8.90275022,167.976419 0,176.87917 0,187.965613 L0,234.999011 C0,246.085454 8.90275022,254.988205 19.9891939,255.324157 L167.976419,255.324157 L188.469542,255.324157 L234.999011,255.324157 C246.253431,255.324157 255.492134,246.085454 255.492134,234.831034 L255.492134,20.4931232 C255.324157,9.23870306 246.085454,0 234.831034,0 Z" fill="url(#linearGradient-1)" fill-rule="nonzero"></path>
				<path d="M234.831034,0 L188.301566,0 C177.047146,0 167.808443,9.23870306 167.808443,20.4931232 L167.808443,80.6286813 L100.449899,80.6286813 C89.5314315,80.6286813 80.6286813,89.5314315 80.6286813,100.617875 L80.6286813,167.976419 L19.9891939,167.976419 C8.90275022,167.976419 0,176.87917 0,187.965613 L0,234.999011 C0,246.085454 8.90275022,254.988205 19.9891939,255.324157 L167.976419,255.324157 L188.469542,255.324157 L234.999011,255.324157 C246.253431,255.324157 255.492134,246.085454 255.492134,234.831034 L255.492134,20.4931232 C255.324157,9.23870306 246.085454,0 234.831034,0 Z" fill="url(#linearGradient-1)" fill-rule="nonzero"></path>
				<g>
						<mask id="mask-3" fill="white">
								<use xlink:href="#path-2"></use>
						</mask>
						<g></g>
						<g mask="url(#mask-3)" fill-rule="nonzero">
								<path d="M234.831034,0 L188.637519,0 C177.383099,0 168.144396,9.23870306 168.144396,20.4931232 L168.144396,80.6286813 L168.144396,255.324157 L188.637519,255.324157 C188.637519,255.324157 188.637519,255.324157 188.637519,255.324157 L234.831034,255.324157 C246.085454,255.324157 255.324157,246.085454 255.324157,234.831034 L255.324157,20.4931232 C255.324157,9.23870306 246.085454,0 234.831034,0 Z" fill="#F57C00"></path>
								<g transform="translate(0.000000, 80.628681)">
										<g>
												<use fill="black" fill-opacity="1" filter="url(#filter-5)" xlink:href="#path-4"></use>
												<use fill="#FFC107" fill-rule="evenodd" xlink:href="#path-4"></use>
										</g>
								</g>
						</g>
						<path d="M167.976419,80.6286813 L167.976419,255.324157 L188.469542,255.324157 C188.469542,255.324157 188.469542,255.324157 188.469542,255.324157 L234.663058,255.324157 C245.917478,255.324157 255.156181,246.085454 255.156181,234.831034 L255.156181,167.976419 L167.976419,80.6286813 Z" fill="url(#linearGradient-6)" fill-rule="nonzero" mask="url(#mask-3)"></path>
						<path d="M100.785852,82.3084455 L167.976419,82.3084455 L167.976419,80.6286813 L100.785852,80.6286813 C89.6994079,80.6286813 80.6286813,89.6994079 80.6286813,100.785852 L80.6286813,102.465616 C80.6286813,91.3791721 89.6994079,82.3084455 100.785852,82.3084455 Z" fill="#FFFFFF" fill-rule="nonzero" opacity="0.2" mask="url(#mask-3)"></path>
						<path d="M20.1571703,169.656184 L80.6286813,169.656184 L80.6286813,167.976419 L20.1571703,167.976419 C9.07072664,167.976419 0,177.047146 0,188.13359 L0,189.813354 C0,178.72691 9.07072664,169.656184 20.1571703,169.656184 Z" fill="#FFFFFF" fill-rule="nonzero" opacity="0.2" mask="url(#mask-3)"></path>
						<path d="M234.831034,0 L188.637519,0 C177.383099,0 168.144396,9.23870306 168.144396,20.4931232 L168.144396,22.1728874 C168.144396,10.9184673 177.383099,1.67976419 188.637519,1.67976419 L234.831034,1.67976419 C246.085454,1.67976419 255.324157,10.9184673 255.324157,22.1728874 L255.324157,20.4931232 C255.324157,9.23870306 246.085454,0 234.831034,0 Z" fill="#FFFFFF" fill-rule="nonzero" opacity="0.2" mask="url(#mask-3)"></path>
						<path d="M234.831034,253.644393 L188.637519,253.644393 C188.637519,253.644393 188.637519,253.644393 188.637519,253.644393 L167.976419,253.644393 L20.1571703,253.644393 C9.07072664,253.644393 0,244.573667 0,233.487223 L0,235.166987 C0,246.253431 9.07072664,255.324157 20.1571703,255.324157 L167.976419,255.324157 L188.469542,255.324157 C188.469542,255.324157 188.469542,255.324157 188.469542,255.324157 L234.663058,255.324157 C245.917478,255.324157 255.156181,246.085454 255.156181,234.831034 L255.158436,233.15127 C255.324157,244.40569 246.085454,253.644393 234.831034,253.644393 Z" fill="#BF360C" fill-rule="nonzero" opacity="0.2" mask="url(#mask-3)"></path>
				</g>
				<path d="M234.831034,0 L188.637519,0 C177.383099,0 168.144396,9.23870306 168.144396,20.4931232 L168.144396,80.6286813 L100.953828,80.6286813 C89.8673843,80.6286813 80.7966577,89.6994079 80.7966577,100.785852 L80.7966577,167.976419 L20.1571703,167.976419 C9.07072664,167.976419 0,177.047146 0,188.13359 L0,235.166987 C0,246.253431 9.07072664,255.324157 20.1571703,255.324157 L234.831034,255.324157 C246.085454,255.324157 255.324157,246.085454 255.324157,234.831034 L255.324157,20.4931232 C255.324157,9.23870306 246.085454,0 234.831034,0 Z" fill="url(#linearGradient-7)" fill-rule="nonzero"></path>
		</g>
</svg>

<svg width="256" height="256" xmlns="http://www.w3.org/2000/svg" xmlns:xlink="http://www.w3.org/1999/xlink" preserveAspectRatio="xMidYMid"><defs><linearGradient x1="0%" y1="50%" x2="99.934%" y2="50%" id="a"><stop stop-color="#FFF" stop-opacity=".1" offset="0%"/><stop stop-color="#FFF" stop-opacity="0" offset="100%"/></linearGradient><linearGradient x1="-49.615%" y1="25.24%" x2="93.179%" y2="96.5%" id="f"><stop stop-color="#BF360C" stop-opacity=".2" offset="0%"/><stop stop-color="#BF360C" stop-opacity=".02" offset="100%"/></linearGradient><linearGradient x1="33.53%" y1="33.576%" x2="98.218%" y2="98.264%" id="g"><stop stop-color="#FFF" stop-opacity=".1" offset="0%"/><stop stop-color="#FFF" stop-opacity="0" offset="100%"/></linearGradient><path d="M234.831 0h-46.193c-11.255 0-20.494 9.239-20.494 20.493V80.63h-67.19c-11.087 0-20.157 9.07-20.157 20.157v67.19h-60.64C9.071 167.976 0 177.047 0 188.134v47.033c0 11.086 9.07 20.157 20.157 20.157h214.674c11.254 0 20.493-9.239 20.493-20.493V20.493C255.324 9.24 246.085 0 234.831 0z" id="b"/><path d="M80.629 20.157v67.19H20.157C9.071 87.348 0 96.419 0 107.506v47.033c0 11.087 9.07 20.157 20.157 20.157h147.82V0h-67.191C89.699 0 80.629 9.07 80.629 20.157z" id="e"/><filter x="-11.3%" y="-9.7%" width="122.6%" height="121.8%" filterUnits="objectBoundingBox" id="d"><feOffset dy="2" in="SourceAlpha" result="shadowOffsetOuter1"/><feGaussianBlur stdDeviation="6" in="shadowOffsetOuter1" result="shadowBlurOuter1"/><feColorMatrix values="0 0 0 0 0 0 0 0 0 0 0 0 0 0 0 0 0 0 0.2 0" in="shadowBlurOuter1"/></filter></defs><path d="M234.831 0h-46.53c-11.254 0-20.493 9.239-20.493 20.493V80.63H100.45c-10.919 0-19.821 8.902-19.821 19.989v67.358h-60.64A19.93 19.93 0 000 187.966v47.033c0 11.086 8.903 19.99 19.99 20.325h215.009c11.254 0 20.493-9.239 20.493-20.493V20.493C255.324 9.24 246.085 0 234.831 0z" fill="url(#a)"/><path d="M234.831 0h-46.53c-11.254 0-20.493 9.239-20.493 20.493V80.63H100.45c-10.919 0-19.821 8.902-19.821 19.989v67.358h-60.64A19.93 19.93 0 000 187.966v47.033c0 11.086 8.903 19.99 19.99 20.325h215.009c11.254 0 20.493-9.239 20.493-20.493V20.493C255.324 9.24 246.085 0 234.831 0z" fill="url(#a)"/><mask id="c" fill="#fff"><use xlink:href="#b"/></mask><g mask="url(#c)"><path d="M234.831 0h-46.193c-11.255 0-20.494 9.239-20.494 20.493v234.831h66.687c11.254 0 20.493-9.239 20.493-20.493V20.493C255.324 9.24 246.085 0 234.831 0z" fill="#F57C00"/><g transform="translate(0 80.629)"><use filter="url(#d)" xlink:href="#e"/><use fill="#FFC107" fill-rule="evenodd" xlink:href="#e"/></g></g><path d="M167.976 80.629v174.695h66.687c11.254 0 20.493-9.239 20.493-20.493v-66.855l-87.18-87.347z" fill="url(#f)" mask="url(#c)"/><path d="M100.786 82.308h67.19v-1.68h-67.19c-11.087 0-20.157 9.071-20.157 20.158v1.68c0-11.087 9.07-20.158 20.157-20.158zm-80.629 87.348H80.63v-1.68H20.157C9.071 167.976 0 177.047 0 188.134v1.68c0-11.087 9.07-20.158 20.157-20.158zM234.831 0h-46.193c-11.255 0-20.494 9.239-20.494 20.493v1.68c0-11.255 9.24-20.493 20.494-20.493h46.193c11.254 0 20.493 9.238 20.493 20.493v-1.68C255.324 9.24 246.085 0 234.831 0z" fill="#FFF" opacity=".2" mask="url(#c)"/><path d="M234.831 253.644H20.157C9.071 253.644 0 244.574 0 233.487v1.68c0 11.086 9.07 20.157 20.157 20.157h214.506c11.254 0 20.493-9.239 20.493-20.493l.002-1.68c.166 11.255-9.073 20.493-20.327 20.493z" fill="#BF360C" opacity=".2" mask="url(#c)"/><path d="M234.831 0h-46.193c-11.255 0-20.494 9.239-20.494 20.493V80.63h-67.19c-11.087 0-20.157 9.07-20.157 20.157v67.19h-60.64C9.071 167.976 0 177.047 0 188.134v47.033c0 11.086 9.07 20.157 20.157 20.157h214.674c11.254 0 20.493-9.239 20.493-20.493V20.493C255.324 9.24 246.085 0 234.831 0z" fill="url(#g)"/></svg>
